assets/images/footer-twitter.svg

<svg width="27" height="27" viewBox="0 0 27 27" fill="none" xmlns="http://www.w3.org/2000/svg">
<path fill-rule="evenodd" clip-rule="evenodd" d="M13.5 0C6.04416 0 0 6.04416 0 13.5C0 20.9558 6.04416 27 13.5 27C20.9558 27 27 20.9558 27 13.5C27 6.04416 20.9558 0 13.5 0ZM13.124 11.4417L13.0957 10.9745C13.0107 9.76381 13.7567 8.65795 14.9371 8.22895C15.3714 8.07642 16.108 8.05735 16.5896 8.19081C16.7784 8.24802 17.1373 8.43868 17.3922 8.61028L17.8549 8.92488L18.3649 8.76281C18.6481 8.67701 19.0259 8.53401 19.1958 8.43868C19.3564 8.35288 19.498 8.30521 19.498 8.33381C19.498 8.49588 19.1486 9.04881 18.8559 9.35388C18.4593 9.78287 18.5726 9.82101 19.3753 9.53501C19.8568 9.37294 19.8663 9.37294 19.7719 9.55407C19.7152 9.64941 19.4225 9.98307 19.1109 10.2881C18.582 10.8125 18.5537 10.8697 18.5537 11.3082C18.5537 11.9851 18.2327 13.396 17.9116 14.1682C17.3167 15.6172 16.0419 17.114 14.7671 17.8671C12.9729 18.9253 10.5838 19.1922 8.57249 18.5726C7.90204 18.3628 6.75 17.829 6.75 17.7336C6.75 17.705 7.09939 17.6669 7.52432 17.6574C8.41196 17.6383 9.2996 17.3904 10.055 16.9519L10.565 16.6468L9.9795 16.4466C9.14851 16.1606 8.40252 15.5028 8.21366 14.8832C8.157 14.683 8.17589 14.6734 8.7047 14.6734L9.25239 14.6639L8.78968 14.4446C8.24199 14.1682 7.74151 13.701 7.496 13.2244C7.31658 12.8812 7.08995 12.0137 7.15605 11.9469C7.17493 11.9183 7.37324 11.9755 7.59987 12.0518C8.25143 12.2901 8.33642 12.2329 7.9587 11.8325C7.25048 11.108 7.03329 10.0307 7.37324 9.01068L7.53377 8.55308L8.157 9.17274C9.4318 10.4216 10.9332 11.1652 12.6519 11.3845L13.124 11.4417Z" fill="white"/>
</svg>

<svg xmlns="http://www.w3.org/2000/svg" width="27" height="27" fill="none"><path fill="#fff" fill-rule="evenodd" d="M13.5 0C6.044 0 0 6.044 0 13.5S6.044 27 13.5 27 27 20.956 27 13.5 20.956 0 13.5 0Zm-.376 11.442-.028-.467c-.085-1.211.66-2.317 1.841-2.746.434-.153 1.171-.172 1.653-.038.188.057.547.248.802.42l.463.314.51-.162c.283-.086.66-.229.83-.324.161-.086.303-.134.303-.105 0 .162-.35.715-.642 1.02-.397.429-.283.467.52.181.48-.162.49-.162.396.02-.057.094-.35.428-.661.733-.529.524-.557.582-.557 1.02 0 .677-.321 2.088-.642 2.86-.595 1.45-1.87 2.946-3.145 3.7-1.794 1.057-4.183 1.324-6.195.705-.67-.21-1.822-.744-1.822-.84 0-.028.35-.066.774-.076a5.317 5.317 0 0 0 2.531-.705l.51-.305-.585-.2c-.831-.286-1.577-.944-1.766-1.564-.057-.2-.038-.21.49-.21l.548-.01-.462-.218c-.548-.277-1.048-.744-1.294-1.22-.18-.344-.406-1.211-.34-1.278.019-.029.217.029.444.105.651.238.736.18.359-.22-.709-.724-.926-1.801-.586-2.821l.16-.458.624.62c1.275 1.249 2.776 1.992 4.495 2.211l.472.058Z" clip-rule="evenodd"/></svg>
